bicons/scalable/emblems/directory-object.svg

<?xml version="1.0" encoding="UTF-8" standalone="no"?>
<!-- Created with Inkscape (http://www.inkscape.org/) -->

<svg
   xmlns:dc="http://purl.org/dc/elements/1.1/"
   xmlns:cc="http://creativecommons.org/ns#"
   xmlns:rdf="http://www.w3.org/1999/02/22-rdf-syntax-ns#"
   xmlns:svg="http://www.w3.org/2000/svg"
   xmlns="http://www.w3.org/2000/svg"
   xmlns:xlink="http://www.w3.org/1999/xlink"
   xmlns:sodipodi="http://sodipodi.sourceforge.net/DTD/sodipodi-0.dtd"
   xmlns:inkscape="http://www.inkscape.org/namespaces/inkscape"
   width="210mm"
   height="297mm"
   viewBox="0 0 744.09448819 1052.3622047"
   id="svg2"
   version="1.1"
   inkscape:version="0.91 r13725"
   inkscape:export-xdpi="7.1999998"
   inkscape:export-ydpi="7.1999998"
   sodipodi:docname="directory-object.svg"
   inkscape:export-filename="C:\Users\johannes\Documents\Arbeit\RRZE\github3\bicons\32x32\emblems\directory-object.png">
  <title
     id="title4162">directory object</title>
  <defs
     id="defs4">
    <linearGradient
       inkscape:collect="always"
       xlink:href="#linearGradient4321"
       id="linearGradient4354"
       x1="190"
       y1="722.36218"
       x2="561.44281"
       y2="387.68182"
       gradientUnits="userSpaceOnUse"
       gradientTransform="matrix(0.90899995,0,0,0.92036214,35.36473,39.52669)" />
    <linearGradient
       id="linearGradient4321"
       inkscape:collect="always">
      <stop
         id="stop4323"
         offset="0"
         style="stop-color:#4e505d;stop-opacity:1;" />
      <stop
         id="stop4325"
         offset="1"
         style="stop-color:#7a8597;stop-opacity:1" />
    </linearGradient>
  </defs>
  <sodipodi:namedview
     id="base"
     pagecolor="#ffffff"
     bordercolor="#666666"
     borderopacity="1.0"
     inkscape:pageopacity="0.0"
     inkscape:pageshadow="2"
     inkscape:zoom="0.70710678"
     inkscape:cx="433.76359"
     inkscape:cy="489.39017"
     inkscape:document-units="px"
     inkscape:current-layer="layer1"
     showgrid="false"
     showguides="true"
     inkscape:guide-bbox="true"
     inkscape:window-width="1600"
     inkscape:window-height="837"
     inkscape:window-x="-4"
     inkscape:window-y="-4"
     inkscape:window-maximized="1"
     inkscape:snap-bbox="true"
     inkscape:bbox-paths="true"
     inkscape:bbox-nodes="true"
     inkscape:snap-nodes="false">
    <sodipodi:guide
       position="560,730.00002"
       orientation="0,1"
       id="guide3338" />
    <sodipodi:guide
       position="560,330.00001"
       orientation="0,1"
       id="guide3340" />
    <sodipodi:guide
       position="190,475.00001"
       orientation="1,0"
       id="guide3344" />
    <sodipodi:guide
       position="590,451.00001"
       orientation="1,0"
       id="guide3346" />
    <inkscape:grid
       type="xygrid"
       id="grid3440" />
  </sodipodi:namedview>
  <metadata
     id="metadata7">
    <rdf:RDF>
      <cc:Work
         rdf:about="">
        <dc:format>image/svg+xml</dc:format>
        <dc:type
           rdf:resource="http://purl.org/dc/dcmitype/StillImage" />
        <dc:title>directory object</dc:title>
        <dc:date>June 2015</dc:date>
        <dc:creator>
          <cc:Agent>
            <dc:title>Johannes Hechler</dc:title>
          </cc:Agent>
        </dc:creator>
        <dc:rights>
          <cc:Agent>
            <dc:title>Johannes Hechler</dc:title>
          </cc:Agent>
        </dc:rights>
        <dc:publisher>
          <cc:Agent>
            <dc:title>RRZE</dc:title>
          </cc:Agent>
        </dc:publisher>
        <dc:contributor>
          <cc:Agent>
            <dc:title>Ute Weber, Hendrik Eggers, Joanna Barbach</dc:title>
          </cc:Agent>
        </dc:contributor>
        <dc:subject>
          <rdf:Bag>
            <rdf:li>object</rdf:li>
            <rdf:li>attributes</rdf:li>
            <rdf:li>directory</rdf:li>
            <rdf:li>collection</rdf:li>
            <rdf:li>LDAP</rdf:li>
          </rdf:Bag>
        </dc:subject>
        <cc:license
           rdf:resource="http://creativecommons.org/licenses/by-sa/3.0/" />
      </cc:Work>
      <cc:License
         rdf:about="http://creativecommons.org/licenses/by-sa/3.0/">
        <cc:permits
           rdf:resource="http://creativecommons.org/ns#Reproduction" />
        <cc:permits
           rdf:resource="http://creativecommons.org/ns#Distribution" />
        <cc:requires
           rdf:resource="http://creativecommons.org/ns#Notice" />
        <cc:requires
           rdf:resource="http://creativecommons.org/ns#Attribution" />
        <cc:permits
           rdf:resource="http://creativecommons.org/ns#DerivativeWorks" />
        <cc:requires
           rdf:resource="http://creativecommons.org/ns#ShareAlike" />
      </cc:License>
    </rdf:RDF>
  </metadata>
  <g
     inkscape:label="Ebene 1"
     inkscape:groupmode="layer"
     id="layer1">
    <g
       id="g4158">
      <path
         id="rect4149"
         d="m 226.95508,358.72266 c -10.40099,0 -18.77539,8.37245 -18.77539,18.77343 l 0,289.69141 c 0,10.40098 8.3744,18.77539 18.77539,18.77539 l 129.28906,0 0.0703,-12.75195 a 18.0018,18.0018 0 0 1 12.88867,-17.13867 17.50175,17.50175 0 0 1 1.45118,-0.57032 18.0018,18.0018 0 0 1 3.82812,-5.70117 L 489.98047,534.30273 a 18.0018,18.0018 0 0 1 8.2207,-4.68164 18.0018,18.0018 0 0 1 4.67578,-8.21484 l 25.60352,-25.60156 a 18.0018,18.0018 0 0 1 13.19531,-5.26367 18.0018,18.0018 0 0 1 2.23828,0.21679 l -0.0176,-0.0234 c 0.45643,0.0689 0.89087,0.18171 1.34375,0.25781 0.005,8.9e-4 0.0103,0.003 0.0156,0.004 a 17.50175,17.50175 0 0 1 1.29297,0.13477 l -0.0156,-0.0195 c 0.11028,0.0166 0.2083,0.0571 0.31836,0.0742 a 17.50175,17.50175 0 0 1 2.04102,0.47461 c 8.3236,1.52679 15.99991,4.33945 22.88672,8.19531 l 0,-122.35938 c 0,-10.40098 -8.37246,-18.77343 -18.77344,-18.77343 l -326.05078,0 z m 328.31836,172.65625 11.9707,11.9707 c -2.74125,-5.23148 -6.59415,-9.13642 -11.9707,-11.9707 z m -51.62305,42.05273 -80.42187,80.42188 21.29296,21.29492 80.42383,-80.42383 -21.29492,-21.29297 z m 68.12891,25.81641 a 18.0018,18.0018 0 0 1 -2.91407,1.04297 18.0018,18.0018 0 0 1 -4.67773,8.2207 l -77.45117,77.45117 66.26953,0 c 10.40098,0 18.77344,-8.37441 18.77344,-18.77539 l 0,-67.93945 z"
         style="color:#252525;clip-rule:nonzero;display:inline;overflow:visible;visibility:visible;opacity:1;isolation:auto;mix-blend-mode:normal;color-interpolation:sRGB;color-interpolation-filters:linearRGB;solid-color:#252525;solid-opacity:1;fill:url(#linearGradient4354);fill-opacity:1;fill-rule:nonzero;stroke:none;stroke-width:23;stroke-linecap:butt;stroke-linejoin:round;stroke-miterlimit:4;stroke-dasharray:none;stroke-dashoffset:0;stroke-opacity:1;color-rendering:auto;image-rendering:auto;shape-rendering:auto;text-rendering:auto;enable-background:accumulate"
         inkscape:connector-curvature="0" />
      <rect
         ry="18.179995"
         y="386.90219"
         x="226.36002"
         height="36.359989"
         width="327.23999"
         id="rect4151"
         style="color:#252525;clip-rule:nonzero;display:inline;overflow:visible;visibility:visible;opacity:1;isolation:auto;mix-blend-mode:normal;color-interpolation:sRGB;color-interpolation-filters:linearRGB;solid-color:#252525;solid-opacity:1;fill:#ffffff;fill-opacity:1;fill-rule:nonzero;stroke:none;stroke-width:23;stroke-linecap:butt;stroke-linejoin:round;stroke-miterlimit:4;stroke-dasharray:none;stroke-dashoffset:0;stroke-opacity:1;color-rendering:auto;image-rendering:auto;shape-rendering:auto;text-rendering:auto;enable-background:accumulate" />
      <path
         sodipodi:nodetypes="sssccs"
         inkscape:connector-curvature="0"
         id="rect4153"
         d="m 235.44922,548.52148 c -5.03584,0 -9.08984,4.05401 -9.08984,9.08985 0,5.03583 4.054,9.08984 9.08984,9.08984 l 200.68359,0 18.17969,-18.17969 z"
         style="color:#252525;clip-rule:nonzero;display:inline;overflow:visible;visibility:visible;opacity:1;isolation:auto;mix-blend-mode:normal;color-interpolation:sRGB;color-interpolation-filters:linearRGB;solid-color:#252525;solid-opacity:1;fill:#ffffff;fill-opacity:1;fill-rule:nonzero;stroke:none;stroke-width:23;stroke-linecap:butt;stroke-linejoin:round;stroke-miterlimit:4;stroke-dasharray:none;stroke-dashoffset:0;stroke-opacity:1;color-rendering:auto;image-rendering:auto;shape-rendering:auto;text-rendering:auto;enable-background:accumulate" />
      <path
         inkscape:connector-curvature="0"
         id="rect4155"
         d="m 235.44922,595.0625 c -5.03586,0 -9.08984,4.05398 -9.08984,9.08984 0,5.03586 4.05398,9.08985 9.08984,9.08985 l 154.14258,0 18.17968,-18.17969 -172.32226,0 z"
         style="color:#252525;clip-rule:nonzero;display:inline;overflow:visible;visibility:visible;opacity:1;isolation:auto;mix-blend-mode:normal;color-interpolation:sRGB;color-interpolation-filters:linearRGB;solid-color:#252525;solid-opacity:1;fill:#ffffff;fill-opacity:1;fill-rule:nonzero;stroke:none;stroke-width:23;stroke-linecap:butt;stroke-linejoin:round;stroke-miterlimit:4;stroke-dasharray:none;stroke-dashoffset:0;stroke-opacity:1;color-rendering:auto;image-rendering:auto;shape-rendering:auto;text-rendering:auto;enable-background:accumulate" />
      <path
         sodipodi:nodetypes="sssccsccssc"
         inkscape:connector-curvature="0"
         id="rect4157"
         d="m 235.44922,643.60156 c -5.03585,0 -9.08984,4.054 -9.08984,9.08985 0,5.03585 4.05399,9.08984 9.08984,9.08984 l 107.45312,0 c 2.4152,-7.49796 7.39004,-13.82569 13.7461,-18.17969 z m 313.63281,1.23438 -16.94531,16.94531 12.37305,0 c 5.03585,0 9.08984,-4.05399 9.08984,-9.08984 0,-3.36469 -1.81431,-6.28372 -4.51758,-7.85547 z"
         style="color:#252525;clip-rule:nonzero;display:inline;overflow:visible;visibility:visible;opacity:1;isolation:auto;mix-blend-mode:normal;color-interpolation:sRGB;color-interpolation-filters:linearRGB;solid-color:#252525;solid-opacity:1;fill:#ffffff;fill-opacity:1;fill-rule:nonzero;stroke:none;stroke-width:23;stroke-linecap:butt;stroke-linejoin:round;stroke-miterlimit:4;stroke-dasharray:none;stroke-dashoffset:0;stroke-opacity:1;color-rendering:auto;image-rendering:auto;shape-rendering:auto;text-rendering:auto;enable-background:accumulate" />
      <rect
         y="322.36221"
         x="190"
         height="400"
         width="400"
         id="rect4160"
         style="opacity:1;fill:none;fill-opacity:1;stroke:none;stroke-width:23;stroke-linecap:butt;stroke-linejoin:round;stroke-miterlimit:4;stroke-dasharray:none;stroke-opacity:1" />
      <path
         inkscape:connector-curvature="0"
         id="path4176"
         d="m 541.20857,508.53206 -25.60402,25.60276 48.75304,48.75154 L 590,557.28063 C 586.01099,530.48744 569.55274,512.81459 541.20854,508.5326 Z M 502.70825,547.03112 387.2102,662.52918 435.96323,711.28072 551.45962,595.78307 502.7082,547.03165 Z m -128.39436,126.27669 -0.26632,49.05439 49.01627,-0.2631 z"
         style="fill:#99b000;fill-rule:evenodd;stroke:none;stroke-width:1px;stroke-linecap:butt;stroke-linejoin:miter;stroke-opacity:1"
         sodipodi:nodetypes="cccccccccccccccc" />
    </g>
  </g>
</svg>

<?xml version="1.0" encoding="UTF-8" standalone="no"?>
<!-- Created with Inkscape (http://www.inkscape.org/) -->

<svg
   xmlns:dc="http://purl.org/dc/elements/1.1/"
   xmlns:cc="http://creativecommons.org/ns#"
   xmlns:rdf="http://www.w3.org/1999/02/22-rdf-syntax-ns#"
   xmlns:svg="http://www.w3.org/2000/svg"
   xmlns="http://www.w3.org/2000/svg"
   xmlns:xlink="http://www.w3.org/1999/xlink"
   xmlns:sodipodi="http://sodipodi.sourceforge.net/DTD/sodipodi-0.dtd"
   xmlns:inkscape="http://www.inkscape.org/namespaces/inkscape"
   width="210mm"
   height="297mm"
   viewBox="0 0 744.09448819 1052.3622047"
   id="svg2"
   version="1.1"
   inkscape:version="0.91 r13725"
   inkscape:export-xdpi="7.1999998"
   inkscape:export-ydpi="7.1999998"
   sodipodi:docname="directory-object.svg"
   inkscape:export-filename="C:\Users\johannes\Documents\Arbeit\RRZE\github3\bicons\32x32\emblems\directory-object.png">
  <title
     id="title4162">directory object</title>
  <defs
     id="defs4">
    <linearGradient
       inkscape:collect="always"
       xlink:href="#linearGradient4321"
       id="linearGradient4354"
       x1="190"
       y1="722.36218"
       x2="561.44281"
       y2="387.68182"
       gradientUnits="userSpaceOnUse"
       gradientTransform="matrix(0.90899995,0,0,0.92036214,35.36473,39.52669)" />
    <linearGradient
       id="linearGradient4321"
       inkscape:collect="always">
      <stop
         id="stop4323"
         offset="0"
         style="stop-color:#4e505d;stop-opacity:1;" />
      <stop
         id="stop4325"
         offset="1"
         style="stop-color:#7a8597;stop-opacity:1" />
    </linearGradient>
  </defs>
  <sodipodi:namedview
     id="base"
     pagecolor="#ffffff"
     bordercolor="#666666"
     borderopacity="1.0"
     inkscape:pageopacity="0.0"
     inkscape:pageshadow="2"
     inkscape:zoom="1"
     inkscape:cx="357.22771"
     inkscape:cy="454.7549"
     inkscape:document-units="px"
     inkscape:current-layer="layer1"
     showgrid="false"
     showguides="true"
     inkscape:guide-bbox="true"
     inkscape:window-width="1366"
     inkscape:window-height="721"
     inkscape:window-x="-4"
     inkscape:window-y="-4"
     inkscape:window-maximized="1"
     inkscape:snap-bbox="true"
     inkscape:bbox-paths="true"
     inkscape:bbox-nodes="true"
     inkscape:snap-nodes="false">
    <sodipodi:guide
       position="560,730.00002"
       orientation="0,1"
       id="guide3338" />
    <sodipodi:guide
       position="560,330.00001"
       orientation="0,1"
       id="guide3340" />
    <sodipodi:guide
       position="190,475.00001"
       orientation="1,0"
       id="guide3344" />
    <sodipodi:guide
       position="590,451.00001"
       orientation="1,0"
       id="guide3346" />
    <inkscape:grid
       type="xygrid"
       id="grid3440" />
  </sodipodi:namedview>
  <metadata
     id="metadata7">
    <rdf:RDF>
      <cc:Work
         rdf:about="">
        <dc:format>image/svg+xml</dc:format>
        <dc:type
           rdf:resource="http://purl.org/dc/dcmitype/StillImage" />
        <dc:title>directory object</dc:title>
        <dc:date>June 2015</dc:date>
        <dc:creator>
          <cc:Agent>
            <dc:title>Johannes Hechler</dc:title>
          </cc:Agent>
        </dc:creator>
        <dc:rights>
          <cc:Agent>
            <dc:title>Johannes Hechler</dc:title>
          </cc:Agent>
        </dc:rights>
        <dc:publisher>
          <cc:Agent>
            <dc:title>RRZE</dc:title>
          </cc:Agent>
        </dc:publisher>
        <dc:contributor>
          <cc:Agent>
            <dc:title>Ute Weber, Hendrik Eggers, Joanna Barbach</dc:title>
          </cc:Agent>
        </dc:contributor>
        <dc:subject>
          <rdf:Bag>
            <rdf:li>object</rdf:li>
            <rdf:li>attributes</rdf:li>
            <rdf:li>directory</rdf:li>
            <rdf:li>collection</rdf:li>
            <rdf:li>LDAP</rdf:li>
          </rdf:Bag>
        </dc:subject>
        <cc:license
           rdf:resource="http://creativecommons.org/licenses/by-sa/3.0/" />
      </cc:Work>
      <cc:License
         rdf:about="http://creativecommons.org/licenses/by-sa/3.0/">
        <cc:permits
           rdf:resource="http://creativecommons.org/ns#Reproduction" />
        <cc:permits
           rdf:resource="http://creativecommons.org/ns#Distribution" />
        <cc:requires
           rdf:resource="http://creativecommons.org/ns#Notice" />
        <cc:requires
           rdf:resource="http://creativecommons.org/ns#Attribution" />
        <cc:permits
           rdf:resource="http://creativecommons.org/ns#DerivativeWorks" />
        <cc:requires
           rdf:resource="http://creativecommons.org/ns#ShareAlike" />
      </cc:License>
    </rdf:RDF>
  </metadata>
  <g
     inkscape:label="Ebene 1"
     inkscape:groupmode="layer"
     id="layer1">
    <g
       id="g4175">
      <path
         id="rect4149"
         d="M 226.95508 358.72266 C 216.55409 358.72266 208.17969 367.09511 208.17969 377.49609 L 208.17969 667.1875 C 208.17969 677.58848 216.55409 685.96289 226.95508 685.96289 L 356.24414 685.96289 L 356.31445 673.21094 A 18.0018 18.0018 0 0 1 369.20312 656.07227 A 17.50175 17.50175 0 0 1 370.6543 655.50195 A 18.0018 18.0018 0 0 1 374.48242 649.80078 L 489.98047 534.30273 A 18.0018 18.0018 0 0 1 498.20117 529.62109 A 18.0018 18.0018 0 0 1 502.87695 521.40625 L 528.48047 495.80469 A 18.0018 18.0018 0 0 1 541.67578 490.54102 A 18.0018 18.0018 0 0 1 543.91406 490.75781 L 543.89648 490.73438 C 544.35291 490.80332 544.78735 490.91609 545.24023 490.99219 C 545.24555 490.99308 545.25054 490.9952 545.25586 490.99609 A 17.50175 17.50175 0 0 1 546.54883 491.13086 L 546.5332 491.11133 C 546.64348 491.12793 546.7415 491.16845 546.85156 491.18555 A 17.50175 17.50175 0 0 1 548.89258 491.66016 C 557.21618 493.18695 564.89249 495.99961 571.7793 499.85547 L 571.7793 377.49609 C 571.7793 367.09511 563.40684 358.72266 553.00586 358.72266 L 226.95508 358.72266 z M 555.27344 531.37891 L 567.24414 543.34961 C 564.50289 538.11813 560.64999 534.21319 555.27344 531.37891 z M 503.65039 573.43164 L 423.22852 653.85352 L 444.52148 675.14844 L 524.94531 594.72461 L 503.65039 573.43164 z M 571.7793 599.24805 A 18.0018 18.0018 0 0 1 568.86523 600.29102 A 18.0018 18.0018 0 0 1 564.1875 608.51172 L 486.73633 685.96289 L 553.00586 685.96289 C 563.40684 685.96289 571.7793 677.58848 571.7793 667.1875 L 571.7793 599.24805 z "
         style="color:#252525;clip-rule:nonzero;display:inline;overflow:visible;visibility:visible;opacity:1;isolation:auto;mix-blend-mode:normal;color-interpolation:sRGB;color-interpolation-filters:linearRGB;solid-color:#252525;solid-opacity:1;fill:url(#linearGradient4354);fill-opacity:1;fill-rule:nonzero;stroke:none;stroke-width:23;stroke-linecap:butt;stroke-linejoin:round;stroke-miterlimit:4;stroke-dasharray:none;stroke-dashoffset:0;stroke-opacity:1;color-rendering:auto;image-rendering:auto;shape-rendering:auto;text-rendering:auto;enable-background:accumulate" />
      <rect
         ry="18.179995"
         y="386.90219"
         x="226.36002"
         height="36.359989"
         width="327.23999"
         id="rect4151"
         style="color:#252525;clip-rule:nonzero;display:inline;overflow:visible;visibility:visible;opacity:1;isolation:auto;mix-blend-mode:normal;color-interpolation:sRGB;color-interpolation-filters:linearRGB;solid-color:#252525;solid-opacity:1;fill:#ffffff;fill-opacity:1;fill-rule:nonzero;stroke:none;stroke-width:23;stroke-linecap:butt;stroke-linejoin:round;stroke-miterlimit:4;stroke-dasharray:none;stroke-dashoffset:0;stroke-opacity:1;color-rendering:auto;image-rendering:auto;shape-rendering:auto;text-rendering:auto;enable-background:accumulate" />
      <path
         sodipodi:nodetypes="sssccs"
         inkscape:connector-curvature="0"
         id="rect4153"
         d="m 235.44922,548.52148 c -5.03584,0 -9.08984,4.05401 -9.08984,9.08985 0,5.03583 4.054,9.08984 9.08984,9.08984 l 200.68359,0 18.17969,-18.17969 z"
         style="color:#252525;clip-rule:nonzero;display:inline;overflow:visible;visibility:visible;opacity:1;isolation:auto;mix-blend-mode:normal;color-interpolation:sRGB;color-interpolation-filters:linearRGB;solid-color:#252525;solid-opacity:1;fill:#ffffff;fill-opacity:1;fill-rule:nonzero;stroke:none;stroke-width:23;stroke-linecap:butt;stroke-linejoin:round;stroke-miterlimit:4;stroke-dasharray:none;stroke-dashoffset:0;stroke-opacity:1;color-rendering:auto;image-rendering:auto;shape-rendering:auto;text-rendering:auto;enable-background:accumulate" />
      <path
         inkscape:connector-curvature="0"
         id="rect4155"
         d="m 235.44922,595.0625 c -5.03586,0 -9.08984,4.05398 -9.08984,9.08984 0,5.03586 4.05398,9.08985 9.08984,9.08985 l 154.14258,0 18.17968,-18.17969 -172.32226,0 z"
         style="color:#252525;clip-rule:nonzero;display:inline;overflow:visible;visibility:visible;opacity:1;isolation:auto;mix-blend-mode:normal;color-interpolation:sRGB;color-interpolation-filters:linearRGB;solid-color:#252525;solid-opacity:1;fill:#ffffff;fill-opacity:1;fill-rule:nonzero;stroke:none;stroke-width:23;stroke-linecap:butt;stroke-linejoin:round;stroke-miterlimit:4;stroke-dasharray:none;stroke-dashoffset:0;stroke-opacity:1;color-rendering:auto;image-rendering:auto;shape-rendering:auto;text-rendering:auto;enable-background:accumulate" />
      <path
         sodipodi:nodetypes="sssccsccssc"
         inkscape:connector-curvature="0"
         id="rect4157"
         d="m 235.44922,643.60156 c -5.03585,0 -9.08984,4.054 -9.08984,9.08985 0,5.03585 4.05399,9.08984 9.08984,9.08984 l 107.45312,0 c 2.4152,-7.49796 7.39004,-13.82569 13.7461,-18.17969 z m 313.63281,1.23438 -16.94531,16.94531 12.37305,0 c 5.03585,0 9.08984,-4.05399 9.08984,-9.08984 0,-3.36469 -1.81431,-6.28372 -4.51758,-7.85547 z"
         style="color:#252525;clip-rule:nonzero;display:inline;overflow:visible;visibility:visible;opacity:1;isolation:auto;mix-blend-mode:normal;color-interpolation:sRGB;color-interpolation-filters:linearRGB;solid-color:#252525;solid-opacity:1;fill:#ffffff;fill-opacity:1;fill-rule:nonzero;stroke:none;stroke-width:23;stroke-linecap:butt;stroke-linejoin:round;stroke-miterlimit:4;stroke-dasharray:none;stroke-dashoffset:0;stroke-opacity:1;color-rendering:auto;image-rendering:auto;shape-rendering:auto;text-rendering:auto;enable-background:accumulate" />
      <rect
         y="322.36221"
         x="190"
         height="400"
         width="400"
         id="rect4160"
         style="opacity:1;fill:none;fill-opacity:1;stroke:none;stroke-width:23;stroke-linecap:butt;stroke-linejoin:round;stroke-miterlimit:4;stroke-dasharray:none;stroke-opacity:1" />
      <path
         inkscape:connector-curvature="0"
         id="path4176"
         d="m 541.20857,508.53206 -25.60402,25.60276 48.75304,48.75154 L 590,557.28063 C 586.01099,530.48744 569.55274,512.81459 541.20854,508.5326 Z M 502.70825,547.03112 387.2102,662.52918 435.96323,711.28072 551.45962,595.78307 502.7082,547.03165 Z m -128.39436,126.27669 -0.26632,49.05439 49.01627,-0.2631 z"
         style="fill:#99b000;fill-rule:evenodd;stroke:none;stroke-width:1px;stroke-linecap:butt;stroke-linejoin:miter;stroke-opacity:1"
         sodipodi:nodetypes="cccccccccccccccc" />
    </g>
  </g>
</svg>
